img/return.svg

<svg width="43" height="46" fill="none" xmlns="http://www.w3.org/2000/svg"><path d="M42.5 27.5c1-6-.5-9-2.5-13s-6.5-7-10.5-8-11.048-2.554-14-1.5l1-5L0 10.5 21.5 23l-7-11s3.5.088 7 .5c3.5.412 10.103 1.043 12 8C35 26 30.702 32.658 25 34c-8.5 2-25-6-25-6l3.5 16S15 45.5 20 45.5s9-1 14.5-4.5 7-7.5 8-13.5Z" fill="#C4C4C4"/></svg>

<svg width="43" height="46" viewBox="0 0 43 46" fill="none" xmlns="http://www.w3.org/2000/svg">
<path d="M42.5 27.5C43.5 21.5 42 18.5 40 14.5C38 10.5 33.5 7.5 29.5 6.5C25.5 5.5 18.4516 3.94586 15.5 4.99999L16.5 0L0 10.5L21.5 23L14.5 12C14.5 12 18 12.0882 21.5 12.5C25 12.9118 31.6026 13.543 33.5 20.5C35 26 30.7021 32.6583 25 34C16.5 36 0 28 0 28L3.5 44C3.5 44 15 45.5 20 45.5C25 45.5 29 44.5 34.5 41C40 37.5 41.5 33.5 42.5 27.5Z" fill="#C4C4C4"/>
</svg>
